**kern	**silbe	**kern	**silbe	**harmony	**phrase	**leadinstrument	**rhyme	**timestamp	**harte
*ICvox	*	*ICvox	*	*M6/8	*	*	*	*	*M6/8
*VRlead	*	*VRbacking*VRresponse	*	*	*	*	*	*	*
*Hstimme	*	*Nstimme	*	*	*	*	*	*	*
*C:	*	*C:	*	*C:	*	*	*	*	*C:
*M12/8	*	*M12/8	*	*	*	*	*	*	*
*clefG2	*	*clefG2	*	*	*	*	*	*	*
r;	.	r;	.	1r;	.	r	.	0	N.C.
=1	=1	=1	=1	=1	=1	=1	=1	=1	=1
*>Letter>A	*>Letter>A	*>Letter>A	*>Letter>A	*>Letter>A	*>Letter>A	*>Letter>A	*>Letter>A	*>Letter>A	*>Letter>A
*>Label>Intro	*>Label>Intro	*>Label>Intro	*>Label>Intro	*>Label>Intro	*>Label>Intro	*>Label>Intro	*>Label>Intro	*>Label>Intro	*>Label>Intro
1.r	.	1.r	.	1.Am	newline	r	.	1.802	A:min
=2	=2	=2	=2	=2	=2	=2	=2	=2	=2
1.r	.	1.r	.	1.CMm	.	r	.	5.258	C:7
=3	=3	=3	=3	=3	=3	=3	=3	=3	=3
1.r	.	[2.e [2.a [2.cc	Oh!	1.Am	newline	r	.	8.714	A:min
.	.	4.e] 4.a] 4.cc]	_	.	.	.	.	.	.
.	.	4.d 4.g 4.b	_	.	.	.	.	.	.
=4	=4	=4	=4	=4	=4	=4	=4	=4	=4
1.r	.	[4.c [4.e [4.g	_	1.CMm	.	r	.	12.163	C:7
.	.	4c] 4e] 4g]	_	.	.	.	.	.	.
.	.	8r	.	.	.	.	.	.	.
.	.	2.r	.	.	.	.	.	.	.
=5	=5	=5	=5	=5	=5	=5	=5	=5	=5
1.r	.	[2.e [2.a [2.cc	Oh!	1.Am	newline	r	.	15.612	A:min
.	.	4.e] 4.a] 4.cc]	_	.	.	.	.	.	.
.	.	4.d 4.g 4.b	_	.	.	.	.	.	.
=6	=6	=6	=6	=6	=6	=6	=6	=6	=6
1.r	.	[4.c [4.e [4.g	_	1.CMm	.	r	.	18.979	C:7
.	.	8c] 8e] 8g]	_	.	.	.	.	.	.
.	.	4r	.	.	.	.	.	.	.
.	.	2.r	.	.	.	.	.	.	.
=7	=7	=7	=7	=7	=7	=7	=7	=7	=7
*>Letter>B	*>Letter>B	*>Letter>B	*>Letter>B	*>Letter>B	*>Letter>B	*>Letter>B	*>Letter>B	*>Letter>B	*>Letter>B
*>Label>Verse	*>Label>Verse	*>Label>Verse	*>Label>Verse	*>Label>Verse	*>Label>Verse	*>Label>Verse	*>Label>Verse	*>Label>Verse	*>Label>Verse
4.r	.	2.r	.	1.Am	newline	voice	.	22.346	A:min
16g	I	.	.	.	.	.	.	.	.
[16g	don't	.	.	.	.	.	.	.	.
16g]	_	.	.	.	.	.	.	.	.
[16a	mind!	.	.	.	.	.	.	.	.
8a_	_	.	.	.	.	.	.	.	.
4a]	_	8r	.	.	.	.	.	.	.
.	.	16e 16a 16cc	I	.	.	.	.	.	.
.	.	16e 16a 16cc	don't	.	.	.	.	.	.
8~bb	_	16e 16a 16cc	mind!	.	.	.	.	.	.
.	.	16r	.	.	.	.	.	.	.
4.r	.	4.r	.	.	.	.	.	.	.
=8	=8	=8	=8	=8	=8	=8	=8	=8	=8
4.r	.	1.r	.	1.CMm	.	voice	.	25.783	C:7
8r	.	.	.	.	.	.	.	.	.
8c	Your	.	.	.	.	.	.	.	.
[8c	love	.	.	.	.	.	A	.	.
4.c]	_	.	.	.	.	.	.	.	.
4.r	.	.	.	.	.	.	.	.	.
=9	=9	=9	=9	=9	=9	=9	=9	=9	=9
4.r	.	2.r	.	1.Am	newline	voice	.	29.219	A:min
16g	I	.	.	.	.	.	.	.	.
[16g	don't	.	.	.	.	.	.	.	.
16g]	_	.	.	.	.	.	.	.	.
[16a	mind!	.	.	.	.	.	.	.	.
8a_	_	.	.	.	.	.	.	.	.
8a]	_	8r	.	.	.	.	.	.	.
8~gg	_	16e 16a 16cc	I	.	.	.	.	.	.
.	.	16e 16a 16cc	don't	.	.	.	.	.	.
8r	.	16e 16a 16cc	mind!	.	.	.	.	.	.
.	.	16r	.	.	.	.	.	.	.
4.r	.	4.r	.	.	.	.	.	.	.
=10	=10	=10	=10	=10	=10	=10	=10	=10	=10
*clefF4	*	*	*	*	*	*	*	*	*
8r	.	1.r	.	1.CMm	.	voice	.	32.749	C:7
16G	The	.	.	.	.	.	.	.	.
8e-	one	.	.	.	.	.	.	.	.
[16d	you're	.	.	.	.	.	.	.	.
8d]	_	.	.	.	.	.	.	.	.
8c	thin-	.	.	.	.	.	.	.	.
16d	-king	.	.	.	.	.	.	.	.
[16c	of	.	.	.	.	.	A	.	.
4c]	_	.	.	.	.	.	.	.	.
8r	.	.	.	.	.	.	.	.	.
16.r	.	.	.	.	.	.	.	.	.
32A	But	.	.	.	.	.	.	.	.
8f#	I	.	.	.	.	.	.	.	.
8f	know	.	.	.	.	.	.	.	.
=11	=11	=11	=11	=11	=11	=11	=11	=11	=11
4e-	_	[2.c [2.f [2.a	_	1.FMm	newline	voice	.	36.28	F:7
8G	.	.	.	.	.	.	.	.	.
4.r	.	.	.	.	.	.	.	.	.
4.r	.	4.c] 4.f] 4.a]	_	.	.	.	.	.	.
8r	.	4.B 4.e 4.g	_	.	.	.	.	.	.
[4B	I	.	.	.	.	.	.	.	.
=12	=12	=12	=12	=12	=12	=12	=12	=12	=12
8B_	_	[4.A [4.d [4.f#	_	1.DMm	.	voice	.	39.667	D:7
16B]	_	.	.	.	.	.	.	.	.
16c	_	.	.	.	.	.	.	.	.
[8B	_	.	.	.	.	.	.	.	.
8B]	_	4A] 4d] 4f#]	_	.	.	.	.	.	.
[4A	know	.	.	.	.	.	.	.	.
.	.	8r	.	.	.	.	.	.	.
8A]	.	2.r	.	.	.	.	.	.	.
4r	.	.	.	.	.	.	.	.	.
4.r	.	.	.	.	.	.	.	.	.
=13	=13	=13	=13	=13	=13	=13	=13	=13	=13
2.r	.	1.r	.	1.GMm	newline	voice	.	43.054	G:7
8r	.	.	.	.	.	.	.	.	.
16c	you're	.	.	.	.	.	.	.	.
8B	gon-	.	.	.	.	.	.	.	.
16A	-na	.	.	.	.	.	.	.	.
8B	miss	.	.	.	.	.	.	.	.
8c	me	.	.	.	.	.	.	.	.
8A	_	.	.	.	.	.	.	.	.
=14	=14	=14	=14	=14	=14	=14	=14	=14	=14
*clefG2	*	*	*	*	*	*	*	*	*
1.r	.	1.r	.	1.CMm	.	voice	.	46.146	C:7
=15	=15	=15	=15	=15	=15	=15	=15	=15	=15
*>Letter>B	*>Letter>B	*>Letter>B	*>Letter>B	*>Letter>B	*>Letter>B	*>Letter>B	*>Letter>B	*>Letter>B	*>Letter>B
*>Label>Verse	*>Label>Verse	*>Label>Verse	*>Label>Verse	*>Label>Verse	*>Label>Verse	*>Label>Verse	*>Label>Verse	*>Label>Verse	*>Label>Verse
4.r	.	2.r	.	1.Am	newline	voice	.	49.238	A:min
16g	I	.	.	.	.	.	.	.	.
[16g	don't	.	.	.	.	.	.	.	.
16g]	_	.	.	.	.	.	.	.	.
[16a	mind!	.	.	.	.	.	.	.	.
8a_	_	.	.	.	.	.	.	.	.
8a]	_	8r	.	.	.	.	.	.	.
8~gg	_	16e 16a 16cc	I	.	.	.	.	.	.
.	.	16e 16a 16cc	don't	.	.	.	.	.	.
8r	.	16e 16a 16cc	mind!	.	.	.	.	.	.
.	.	16r	.	.	.	.	.	.	.
4.r	.	4.r	.	.	.	.	.	.	.
=16	=16	=16	=16	=16	=16	=16	=16	=16	=16
*clefF4	*	*	*	*	*	*	*	*	*
4.r	.	1.r	.	1.CMm	.	voice	.	52.712	C:7
8r	.	.	.	.	.	.	.	.	.
16G	Your	.	.	.	.	.	.	.	.
[16e	love	.	.	.	.	.	.	.	.
8e_	_	.	.	.	.	.	.	.	.
8e]	_	.	.	.	.	.	.	.	.
16d	sick	.	.	.	.	.	.	.	.
[16c	soul	.	.	.	.	.	B	.	.
8c_	_	.	.	.	.	.	.	.	.
4.c]	_	.	.	.	.	.	.	.	.
=17	=17	=17	=17	=17	=17	=17	=17	=17	=17
*clefG2	*	*	*	*	*	*	*	*	*
4.r	.	2.r	.	1.Am	newline	voice	.	56.185	A:min
16g	I	.	.	.	.	.	.	.	.
[16g	don't	.	.	.	.	.	.	.	.
16g]	_	.	.	.	.	.	.	.	.
[16a	mind!	.	.	.	.	.	.	.	.
8a_	_	.	.	.	.	.	.	.	.
16a]	_	8r	.	.	.	.	.	.	.
16~gg	_	.	.	.	.	.	.	.	.
4r	.	16e 16a 16cc	I	.	.	.	.	.	.
.	.	16e 16a 16cc	don't	.	.	.	.	.	.
.	.	16e 16a 16cc	mind	.	.	.	.	.	.
.	.	16r	.	.	.	.	.	.	.
4.r	.	4.r	.	.	.	.	.	.	.
=18	=18	=18	=18	=18	=18	=18	=18	=18	=18
*clefF4	*	*	*	*	*	*	*	*	*
4.r	.	1.r	.	1.CMm	.	voice	.	59.596	C:7
8r	.	.	.	.	.	.	.	.	.
8F	It	.	.	.	.	.	.	.	.
[8e	can't	.	.	.	.	.	.	.	.
8e]	_	.	.	.	.	.	.	.	.
8c	grow	.	.	.	.	.	.	.	.
[8c	cold	.	.	.	.	.	B	.	.
8c]	_	.	.	.	.	.	.	.	.
16f	I	.	.	.	.	.	.	.	.
[16e-	know	.	.	.	.	.	.	.	.
8e-_	_	.	.	.	.	.	.	.	.
=19	=19	=19	=19	=19	=19	=19	=19	=19	=19
4e-]	.	[2.c [2.f [2.a	Yee	1.FMm	newline	voice	.	63.008	F:7
8r	.	.	.	.	.	.	.	.	.
4.r	.	.	.	.	.	.	.	.	.
4.r	.	4.c] 4.f] 4.a]	_	.	.	.	.	.	.
4r	.	4.B 4.e 4.g	_	.	.	.	.	.	.
[8B	I	.	.	.	.	.	.	.	.
=20	=20	=20	=20	=20	=20	=20	=20	=20	=20
8B_	_	[4.A [4.d [4.f#	_	1.DMm	.	voice	.	66.475	D:7
16B]	_	.	.	.	.	.	.	.	.
16c	_	.	.	.	.	.	.	.	.
[8B	_	.	.	.	.	.	.	.	.
8B]	_	4A] 4d] 4f#]	.	.	.	.	.	.	.
[4A	know	.	.	.	.	.	.	.	.
.	.	8r	.	.	.	.	.	.	.
8A]	.	2.r	.	.	.	.	.	.	.
4r	.	.	.	.	.	.	.	.	.
4.r	.	.	.	.	.	.	.	.	.
=21	=21	=21	=21	=21	=21	=21	=21	=21	=21
4.r	.	1.r	.	1.GMm	newline	voice	.	69.943	G:7
4.r	.	.	.	.	.	.	.	.	.
8r	.	.	.	.	.	.	.	.	.
8e	You	.	.	.	.	.	.	.	.
16c	gon-	.	.	.	.	.	.	.	.
16A	-na	.	.	.	.	.	.	.	.
8c	miss	.	.	.	.	.	.	.	.
8c	me	.	.	.	.	.	.	.	.
8A	_	.	.	.	.	.	.	.	.
=22	=22	=22	=22	=22	=22	=22	=22	=22	=22
1.r	.	1.r	.	1.CMm	.	voice	.	73.033	C:7
=23	=23	=23	=23	=23	=23	=23	=23	=23	=23
*>Letter>A	*>Letter>A	*>Letter>A	*>Letter>A	*>Letter>A	*>Letter>A	*>Letter>A	*>Letter>A	*>Letter>A	*>Letter>A
*>Label>Interlude	*>Label>Interlude	*>Label>Interlude	*>Label>Interlude	*>Label>Interlude	*>Label>Interlude	*>Label>Interlude	*>Label>Interlude	*>Label>Interlude	*>Label>Interlude
1.r	.	[2.e [2.a [2.cc	Yee	1.Am	newline	voice	.	76.124	A:min
.	.	4.e] 4.a] 4.cc]	_	.	.	.	.	.	.
.	.	4.d 4.g 4.b	_	.	.	.	.	.	.
=24	=24	=24	=24	=24	=24	=24	=24	=24	=24
4.r	.	[4.c [4.e [4.g	_	1.CMm	.	voice	.	79.468	C:7
4.r	.	4c] 4e] 4g]	_	.	.	.	.	.	.
.	.	8r	.	.	.	.	.	.	.
8r	.	2.r	.	.	.	.	.	.	.
8e-	Yeah,	.	.	.	.	.	.	.	.
8c	yeah,	.	.	.	.	.	.	.	.
8c	yeah	.	.	.	.	.	.	.	.
8A	.	.	.	.	.	.	.	.	.
8r	.	.	.	.	.	.	.	.	.
=25	=25	=25	=25	=25	=25	=25	=25	=25	=25
1.r	.	[2.e [2.a [2.cc	Yee	1.Am	newline	voice	.	82.811	A:min
.	.	4.e] 4.a] 4.cc]	_	.	.	.	.	.	.
.	.	4.d 4.g 4.b	_	.	.	.	.	.	.
=26	=26	=26	=26	=26	=26	=26	=26	=26	=26
4r	.	[4.c [4.e [4.g	_	1.CMm	.	voice	.	86.173	C:7
8e	Some-	.	.	.	.	.	.	.	.
8c	-where	8c] 8e] 8g]	_	.	.	.	.	.	.
8d	down	4r	.	.	.	.	.	.	.
16c	the	.	.	.	.	.	.	.	.
16A	line	.	.	.	.	.	C	.	.
4c	_	2.r	.	.	.	.	.	.	.
8r	.	.	.	.	.	.	.	.	.
4.r	.	.	.	.	.	.	.	.	.
=27	=27	=27	=27	=27	=27	=27	=27	=27	=27
1.r	.	[2.c [2.f [2.a	Yee	1.FMm	newline	voice	.	89.536	F:7
.	.	4.c] 4.f] 4.a]	_	.	.	.	.	.	.
.	.	4.B 4.e 4.g	_	.	.	.	.	.	.
=28	=28	=28	=28	=28	=28	=28	=28	=28	=28
4r	.	[4.A [4.d [4.f#	_	1.DMm	.	voice	.	92.977	D:7
[8c	Mmm	.	.	.	.	.	.	.	.
4.c_	_	4A] 4d] 4f#]	.	.	.	.	.	.	.
.	.	8r	.	.	.	.	.	.	.
8c]	_	2.r	.	.	.	.	.	.	.
8A	.	.	.	.	.	.	.	.	.
8r	.	.	.	.	.	.	.	.	.
4.r	.	.	.	.	.	.	.	.	.
=29	=29	=29	=29	=29	=29	=29	=29	=29	=29
1.r	.	1.r	.	1.GMm	newline	guitar	.	96.419	G:7
=30	=30	=30	=30	=30	=30	=30	=30	=30	=30
1.r	.	1.r	.	1.CMm	.	guitar	.	99.672	C:7
=31	=31	=31	=31	=31	=31	=31	=31	=31	=31
*>Letter>B	*>Letter>B	*>Letter>B	*>Letter>B	*>Letter>B	*>Letter>B	*>Letter>B	*>Letter>B	*>Letter>B	*>Letter>B
*>Label>Verse	*>Label>Verse	*>Label>Verse	*>Label>Verse	*>Label>Verse	*>Label>Verse	*>Label>Verse	*>Label>Verse	*>Label>Verse	*>Label>Verse
4.r	.	2.r	.	1.Am	newline	voice	.	102.924	A:min
16g	I	.	.	.	.	.	.	.	.
[16g	don't	.	.	.	.	.	.	.	.
16g]	_	.	.	.	.	.	.	.	.
[16a	mind!	.	.	.	.	.	C	.	.
8a_	_	.	.	.	.	.	.	.	.
16a]	_	8r	.	.	.	.	.	.	.
16gg	_	.	.	.	.	.	.	.	.
4r	.	16e 16a 16cc	I	.	.	.	.	.	.
.	.	16e 16a 16cc	don't	.	.	.	.	.	.
.	.	16e 16a 16cc	mind	.	.	.	.	.	.
.	.	16r	.	.	.	.	.	.	.
4.r	.	4.r	.	.	.	.	.	.	.
=32	=32	=32	=32	=32	=32	=32	=32	=32	=32
4.r	.	1.r	.	1.CMm	.	voice	.	106.406	C:7
8r	.	.	.	.	.	.	.	.	.
16e-	This	.	.	.	.	.	.	.	.
16e-	is	.	.	.	.	.	.	.	.
8e	all	.	.	.	.	.	.	.	.
16d	of	.	.	.	.	.	.	.	.
16c	_	.	.	.	.	.	.	.	.
8d	my	.	.	.	.	.	.	.	.
[8c	song	.	.	.	.	.	D	.	.
4c]	_	.	.	.	.	.	.	.	.
8r	.	.	.	.	.	.	.	.	.
=33	=33	=33	=33	=33	=33	=33	=33	=33	=33
4.r	.	2.r	.	1.Am	newline	voice	.	109.887	A:min
16g	I	.	.	.	.	.	.	.	.
[16g	don't	.	.	.	.	.	.	.	.
16g]	_	.	.	.	.	.	.	.	.
[16a	mind!	.	.	.	.	.	.	.	.
8a_	_	.	.	.	.	.	.	.	.
16a]	_	8r	.	.	.	.	.	.	.
16ff	_	.	.	.	.	.	.	.	.
4r	.	16e 16a 16cc	I	.	.	.	.	.	.
.	.	16e 16a 16cc	don't	.	.	.	.	.	.
.	.	16e 16a 16cc	mind	.	.	.	.	.	.
.	.	16r	.	.	.	.	.	.	.
8r	.	4.r	.	.	.	.	.	.	.
4r	.	.	.	.	.	.	.	.	.
=34	=34	=34	=34	=34	=34	=34	=34	=34	=34
8r	.	1.r	.	1.CMm	.	voice	.	113.339	C:7
16e-	Good-	.	.	.	.	.	.	.	.
[16e	-bye,	.	.	.	.	.	.	.	.
8e_	_	.	.	.	.	.	.	.	.
8e]	_	.	.	.	.	.	.	.	.
16c	so	.	.	.	.	.	.	.	.
[16c	long	.	.	.	.	.	D	.	.
8c_	_	.	.	.	.	.	.	.	.
4c]	_	.	.	.	.	.	.	.	.
8r	.	.	.	.	.	.	.	.	.
8r	.	.	.	.	.	.	.	.	.
16c	But	.	.	.	.	.	.	.	.
16g	I	.	.	.	.	.	.	.	.
8f	know	.	.	.	.	.	.	.	.
=35	=35	=35	=35	=35	=35	=35	=35	=35	=35
4e-	_	[2.c [2.f [2.a	Yee	1.FMm	newline	voice	.	116.791	F:7
8G	.	.	.	.	.	.	.	.	.
4.r	.	.	.	.	.	.	.	.	.
4.r	.	4.c] 4.f] 4.a]	_	.	.	.	.	.	.
8r	.	4.B 4.e 4.g	_	.	.	.	.	.	.
[4B	I	.	.	.	.	.	.	.	.
=36	=36	=36	=36	=36	=36	=36	=36	=36	=36
4.B_	_	[4.A [4.d [4.f#	_	1.DMm	.	voice	.	120.34	D:7
8B]	_	4A] 4d] 4f#]	.	.	.	.	.	.	.
4A	know...	.	.	.	.	.	.	.	.
.	.	8r	.	.	.	.	.	.	.
2.r	.	2.r	.	.	.	.	.	.	.
=37	=37	=37	=37	=37	=37	=37	=37	=37	=37
2.r	.	1.r	.	1.GMm	newline	voice	.	123.888	G:7
8r	.	.	.	.	.	.	.	.	.
8c	You	.	.	.	.	.	.	.	.
16c	gon-	.	.	.	.	.	.	.	.
16A	-na	.	.	.	.	.	.	.	.
8c	miss	.	.	.	.	.	.	.	.
8c	me	.	.	.	.	.	.	.	.
8A	_	.	.	.	.	.	.	.	.
=38	=38	=38	=38	=38	=38	=38	=38	=38	=38
1.r	.	1.r	.	1.CMm	.	voice	.	127.047	C:7
=39	=39	=39	=39	=39	=39	=39	=39	=39	=39
*>Letter>A	*>Letter>A	*>Letter>A	*>Letter>A	*>Letter>A	*>Letter>A	*>Letter>A	*>Letter>A	*>Letter>A	*>Letter>A
*>Label>Interlude	*>Label>Interlude	*>Label>Interlude	*>Label>Interlude	*>Label>Interlude	*>Label>Interlude	*>Label>Interlude	*>Label>Interlude	*>Label>Interlude	*>Label>Interlude
4.r	.	[2.e [2.a [2.cc	Oh	1.Am	newline	voice	.	130.207	A:min
8r	.	.	.	.	.	.	.	.	.
8cc	Good-	.	.	.	.	.	.	.	.
[8cc	-bye,	.	.	.	.	.	.	.	.
4cc]	_	4.e] 4.a] 4.cc]	_	.	.	.	.	.	.
16a	so	.	.	.	.	.	.	.	.
16g	_	.	.	.	.	.	.	.	.
8cc	long!	4.d 4.g 4.b	_	.	.	.	.	.	.
16a	_	.	.	.	.	.	.	.	.
16g	_	.	.	.	.	.	.	.	.
8r	.	.	.	.	.	.	.	.	.
=40	=40	=40	=40	=40	=40	=40	=40	=40	=40
*clefF4	*	*	*	*	*	*	*	*	*
4.r	.	[4.c [4.e [4.g	_	1.CMm	.	voice	.	133.623	C:7
16.c	Mm,	4c] 4e] 4g]	_	.	.	.	.	.	.
16.e	no,	.	.	.	.	.	.	.	.
16.d	no,	.	.	.	.	.	.	.	.
.	.	8r	.	.	.	.	.	.	.
16.c	no,	.	.	.	.	.	.	.	.
16.A	I	2.r	.	.	.	.	.	.	.
16.c	don't	.	.	.	.	.	.	.	.
[16d	mind	.	.	.	.	.	.	.	.
8d]	_	.	.	.	.	.	.	.	.
4e	_	.	.	.	.	.	.	.	.
8r	.	.	.	.	.	.	.	.	.
=41	=41	=41	=41	=41	=41	=41	=41	=41	=41
*clefG2	*	*	*	*	*	*	*	*	*
4.r	.	[2.e [2.a [2.cc	Oh	1.Am	newline	voice	.	137.04	A:min
16r	.	.	.	.	.	.	.	.	.
16a	A'-	.	.	.	.	.	.	.	.
16cc	-good-	.	.	.	.	.	.	.	.
[16cc	-bye,	.	.	.	.	.	.	.	.
8cc]	_	.	.	.	.	.	.	.	.
16cc	so	4.e] 4.a] 4.cc]	_	.	.	.	.	.	.
16a	_	.	.	.	.	.	.	.	.
8cc	long!	.	.	.	.	.	.	.	.
16a	_	.	.	.	.	.	.	.	.
[16g	_	.	.	.	.	.	.	.	.
8g]	_	4.d 4.g 4.b	_	.	.	.	.	.	.
4r	.	.	.	.	.	.	.	.	.
=42	=42	=42	=42	=42	=42	=42	=42	=42	=42
1.r	.	[4.c [4.e [4.g	_	1.CMm	.	voice	.	140.269	C:7
.	.	4c] 4e] 4g]	_	.	.	.	.	.	.
.	.	8r	.	.	.	.	.	.	.
.	.	2.r	.	.	.	.	.	.	.
=43	=43	=43	=43	=43	=43	=43	=43	=43	=43
1.r	.	1.e; 1.a 1.cc	Oh!	1.Am	newline	voice	.	143.499	A:min
r;	.	r;	.	1r;	.	r	.	148.724	N.C.
r;	.	r;	.	1r;	.	r	.	150.909	N.C.
*-	*-	*-	*-	*-	*-	*-	*-	*-	*-
!!!BillboardChartDate: 1961/07/03
!!!BillboardPeak: 47
!!!BillboardWeeksOnChart: 8
!!!COC: James Brown
!!!ENC: Nathaniel Condit-Schultz
!!!EST: Awating manual error checking and editing.
!!!OTL: I Don't Mind
!!!RDF**chordsym: original McGill chord annotation + (implied pitch class set, with bass pitch in first position)
!!!RDF**harmony: **recip + pitch class of root + harmonic quality
!!!RDF**leadinstrument: original McGill primary instrumentation annotation
!!!RDF**phrase: newline = linebreak in original McGill transcription
!!!RDF**timestamp: McGill audio timestamp in seconds
!!!RDT: 2017/01/12/
!!!SampleActualRank: 57
!!!SampleID#: 0003
!!!SampleTargetRank: 56
